X:1
T:Title
%%score { ( 1 4 ) | ( 2 3 ) }
L:1/8
Q:1/4=100
M:4/4
K:Bb
V:1 treble nm="Grand Piano"
V:4 treble 
V:2 bass 
V:3 bass 
V:1
 [DF]2 [EG]>[EA] [DB]3 [FB] | [Gd]>[Gc] [FB]>[EA] [DB]2 [DF]2 | [EG]2 [FG]>[FG] [Ee]3 [Ee] | %3
w: B.~C.~Unseld * * * *|||
 [Fd]>[Fd] [CGc]>[CGB] [CFA]2 [EG]2 | [B,DF]2 [B,EG]>[CEA] B3 B | z4 z2 c2 | %6
w: |||
 c2 d>[Fc] [Ff]>[EA] [DB]>G | F2 c2 [DB]4 | [Fc]2 [=Ec]>[Ec] c3 c | c>d c>B A2 F2 | %10
w: ||||
 A2 [GA]2 [FA]3 [FA] | [EFc]>[DFB] [CFA]>[B,=EG] [A,F]4 | [B,DF]2 [B,EG]>[CEA] B3 B | z4 z2 c2 | %14
w: ||||
 c2 d>[Fc] [Ff]>[EA] [DB]>G |[M:8/4] F2 c2 [DB]4 z8 |] %16
w: ||
V:2
 [B,,B,]2 [E,B,]>[C,F,] [B,,F,]3 [D,B,] | [E,B,]>[E,E] [F,D]>[F,C] [B,,B,]2 [B,,B,]2 | %2
 [E,B,]2 [D,=B,]>[D,B,] [C,C]3 [C,C] | [D,=B,]>[D,B,] E,>=E, z2 A,2 | %4
 B,,2 E,>C,[K:treble] [G,B,D]3 [G,B,D] | %5
 [G,=B,F]>[G,B,F][K:bass] [C,C]>[C,C] [E,CE]2 [E,CE][C,_B,] | %6
 [F,A,F]2 [F,A,F]>[E,A,] [D,B,]>[C,F,] [B,,B,]>[E,B,E] | [F,B,D]2 [F,A,E]2 [B,,B,]4 | %8
 [F,A,]2 [C,G,]>[C,G,][K:treble] [F,A,F]3 [G,B,=E] | %9
 [A,CF]>[B,F] [A,CF]>[K:bass][G,C=E] [F,CF]2 [F,A,C]2 | [F,CF]2 [=E,_D]2 [D,=D]3 [D,D] | z4 F,4 | %12
 B,,2 E,>C,[K:treble] [G,B,D]3 [G,B,D] | %13
 [G,=B,F]>[G,B,F][K:bass] [C,C]>[C,C] [E,CE]2 [E,CE][C,_B,] | %14
 [F,A,F]2 [F,A,F]>[E,A,] [D,B,]>[C,F,] [B,,B,]>[E,B,E] |[M:8/4] [F,B,D]2 [F,A,E]2 [B,,B,]4 z8 |] %16
V:3
 x8 | x8 | x8 | z4 F,4 | x4[K:treble] x4 | x2[K:bass] x6 | x8 | x8 | x4[K:treble] x4 | %9
 x7/2[K:bass] x9/2 | x8 | A,,>B,, C,>C, z2 E2 | x4[K:treble] x4 | x2[K:bass] x6 | x8 | %15
[M:8/4] x16 |] %16
V:4
 x8 | x8 | x8 | x8 | x8 | d>d [Ge]>[Ge] G2 z =E | x8 | x8 | x8 | x8 | x8 | x8 | x8 | %13
 d>d [Ge]>[Ge] G2 z =E | x8 |[M:8/4] x16 |] %16

